public/assets/imgs/projetos/icons/locker-icon.svg

<svg fill="none" height="47" viewBox="0 0 46 47" width="46" xmlns="http://www.w3.org/2000/svg"><path d="m2.10837 3.67591v39.77479c0 .6174.24484.9498.51778 1.1464.3012.2168.67928.2945.92311.2945h15.96064c.306 0 .5541.2481.5541.5542s-.2481.5542-.5541.5542h-15.96064c-.42119 0-1.04065-.1218-1.57073-.5035-.55835-.402-.97853-1.0671-.97853-2.0458v-39.7906c0-.00972.00026-.01943.00077-.02913.02286-.43432.17556-1.07141.57511-1.6152.41764-.56842 1.09496-1.01577 2.08422-1.01577h17.8448c.687 0 1.3405.24339 1.8193.75899.4768.51343.73 1.24194.73 2.12278v39.55223c.0166.2498.1138.63.3383.9353.2109.2867.5407.5223 1.1026.5223h17.5739c.2629-.0507.6467-.1865.959-.4259.3153-.2418.5311-.5636.5311-1.015v-39.77476c-.0167-.26798-.1196-.6757-.3607-1.0039-.2271-.30904-.5842-.56367-1.191-.56367h-14.0764c-.306 0-.5542-.24811-.5542-.55418s.2482-.55419.5542-.55419h14.0764c.9892 0 1.6666.44735 2.0842 1.01577.3996.54379.5523 1.18088.5751 1.6152.0005.0097.0008.01941.0008.02913v39.7906c0 .8787-.4492 1.499-.9652 1.8946-.502.3849-1.0906.5801-1.493.6472-.0301.005-.0606.0075-.0911.0075h-17.6231c-.9455 0-1.5948-.4294-1.9954-.974-.3826-.5202-.53-1.129-.553-1.5445-.0005-.0079-.0007-.0158-.0008-.0237-.0001-.0023-.0001-.0047-.0001-.0071v-39.56893c0-.67088-.1901-1.10616-.4338-1.36859-.2417-.26026-.5857-.40481-1.0071-.40481h-17.8448c-.6068 0-.96396.25463-1.19102.56367-.24114.32819-.34399.73589-.36071 1.00387zm4.76601 4.97187c0-.30607.24812-.55418.55419-.55418h10.08623c.306 0 .5542.24811.5542.55418s-.2482.55419-.5542.55419h-10.08623c-.30607 0-.55419-.24812-.55419-.55419zm21.83502 0c0-.30607.2481-.55418.5541-.55418h10.0863c.306 0 .5541.24811.5541.55418s-.2481.55419-.5541.55419h-10.0863c-.306 0-.5541-.24812-.5541-.55419zm-21.83502 5.76352c0-.306.24812-.5542.55419-.5542h10.08623c.306 0 .5542.2482.5542.5542 0 .3061-.2482.5542-.5542.5542h-10.08623c-.30607 0-.55419-.2481-.55419-.5542zm21.83502 0c0-.306.2481-.5542.5541-.5542h10.0863c.306 0 .5541.2482.5541.5542 0 .3061-.2481.5542-.5541.5542h-10.0863c-.306 0-.5541-.2481-.5541-.5542zm-20.94832 9.1995c.30607 0 .55419.2482.55419.5542v2.5493c0 .3061-.24812.5542-.55419.5542s-.55418-.2481-.55418-.5542v-2.5493c0-.306.24811-.5542.55418-.5542zm21.83502 0c.306 0 .5541.2482.5541.5542v2.5493c0 .3061-.2481.5542-.5541.5542-.3061 0-.5542-.2481-.5542-.5542v-2.5493c0-.306.2481-.5542.5542-.5542zm-20.94832 14.7414c0-.3061.24812-.5542.55419-.5542h6.53943c.306 0 .5542.2481.5542.5542s-.2482.5542-.5542.5542h-6.53943c-.30607 0-.55419-.2481-.55419-.5542zm21.72412 0c0-.3061.2481-.5542.5542-.5542h6.7611c.3061 0 .5542.2481.5542.5542s-.2481.5542-.5542.5542h-6.7611c-.3061 0-.5542-.2481-.5542-.5542z" style="fill-rule:evenodd;clip-rule:evenodd;fill:#000;stroke:#000;stroke-width:.5;stroke-linecap:round;stroke-linejoin:round"/></svg>

<svg width="46" height="47" viewBox="0 0 46 47" fill="none" xmlns="http://www.w3.org/2000/svg">
<path fill-rule="evenodd" clip-rule="evenodd" d="M2.10837 3.67591V43.4507C2.10837 44.0681 2.35321 44.4005 2.62615 44.5971C2.92735 44.8139 3.30543 44.8916 3.54926 44.8916H19.5099C19.8159 44.8916 20.064 45.1397 20.064 45.4458C20.064 45.7519 19.8159 46 19.5099 46H3.54926C3.12807 46 2.50861 45.8782 1.97853 45.4965C1.42018 45.0945 1 44.4294 1 43.4507V3.6601C1 3.65038 1.00026 3.64067 1.00077 3.63097C1.02363 3.19665 1.17633 2.55956 1.57588 2.01577C1.99352 1.44735 2.67084 1 3.6601 1H21.5049C22.1919 1 22.8454 1.24339 23.3242 1.75899C23.801 2.27242 24.0542 3.00093 24.0542 3.88177V43.434C24.0708 43.6838 24.168 44.064 24.3925 44.3693C24.6034 44.656 24.9332 44.8916 25.4951 44.8916H43.069C43.3319 44.8409 43.7157 44.7051 44.028 44.4657C44.3433 44.2239 44.5591 43.9021 44.5591 43.4507V3.67594C44.5424 3.40796 44.4395 3.00024 44.1984 2.67204C43.9713 2.363 43.6142 2.10837 43.0074 2.10837H28.931C28.625 2.10837 28.3768 1.86026 28.3768 1.55419C28.3768 1.24812 28.625 1 28.931 1H43.0074C43.9966 1 44.674 1.44735 45.0916 2.01577C45.4912 2.55956 45.6439 3.19665 45.6667 3.63097C45.6672 3.64067 45.6675 3.65038 45.6675 3.6601V43.4507C45.6675 44.3294 45.2183 44.9497 44.7023 45.3453C44.2003 45.7302 43.6117 45.9254 43.2093 45.9925C43.1792 45.9975 43.1487 46 43.1182 46H25.4951C24.5496 46 23.9003 45.5706 23.4997 45.026C23.1171 44.5058 22.9697 43.897 22.9467 43.4815C22.9462 43.4736 22.946 43.4657 22.9459 43.4578C22.9458 43.4555 22.9458 43.4531 22.9458 43.4507V3.88177C22.9458 3.21089 22.7557 2.77561 22.512 2.51318C22.2703 2.25292 21.9263 2.10837 21.5049 2.10837H3.6601C3.0533 2.10837 2.69614 2.363 2.46908 2.67204C2.22794 3.00023 2.12509 3.40793 2.10837 3.67591ZM6.87438 8.64778C6.87438 8.34171 7.1225 8.0936 7.42857 8.0936H17.5148C17.8208 8.0936 18.069 8.34171 18.069 8.64778C18.069 8.95385 17.8208 9.20197 17.5148 9.20197H7.42857C7.1225 9.20197 6.87438 8.95385 6.87438 8.64778ZM28.7094 8.64778C28.7094 8.34171 28.9575 8.0936 29.2635 8.0936H39.3498C39.6558 8.0936 39.9039 8.34171 39.9039 8.64778C39.9039 8.95385 39.6558 9.20197 39.3498 9.20197H29.2635C28.9575 9.20197 28.7094 8.95385 28.7094 8.64778ZM6.87438 14.4113C6.87438 14.1053 7.1225 13.8571 7.42857 13.8571H17.5148C17.8208 13.8571 18.069 14.1053 18.069 14.4113C18.069 14.7174 17.8208 14.9655 17.5148 14.9655H7.42857C7.1225 14.9655 6.87438 14.7174 6.87438 14.4113ZM28.7094 14.4113C28.7094 14.1053 28.9575 13.8571 29.2635 13.8571H39.3498C39.6558 13.8571 39.9039 14.1053 39.9039 14.4113C39.9039 14.7174 39.6558 14.9655 39.3498 14.9655H29.2635C28.9575 14.9655 28.7094 14.7174 28.7094 14.4113ZM7.76108 23.6108C8.06715 23.6108 8.31527 23.859 8.31527 24.165V26.7143C8.31527 27.0204 8.06715 27.2685 7.76108 27.2685C7.45501 27.2685 7.2069 27.0204 7.2069 26.7143V24.165C7.2069 23.859 7.45501 23.6108 7.76108 23.6108ZM29.5961 23.6108C29.9021 23.6108 30.1502 23.859 30.1502 24.165V26.7143C30.1502 27.0204 29.9021 27.2685 29.5961 27.2685C29.29 27.2685 29.0419 27.0204 29.0419 26.7143V24.165C29.0419 23.859 29.29 23.6108 29.5961 23.6108ZM8.64778 38.3522C8.64778 38.0461 8.8959 37.798 9.20197 37.798H15.7414C16.0474 37.798 16.2956 38.0461 16.2956 38.3522C16.2956 38.6583 16.0474 38.9064 15.7414 38.9064H9.20197C8.8959 38.9064 8.64778 38.6583 8.64778 38.3522ZM30.3719 38.3522C30.3719 38.0461 30.62 37.798 30.9261 37.798H37.6872C37.9933 37.798 38.2414 38.0461 38.2414 38.3522C38.2414 38.6583 37.9933 38.9064 37.6872 38.9064H30.9261C30.62 38.9064 30.3719 38.6583 30.3719 38.3522Z" fill="black" stroke="black" stroke-width="0.5" stroke-linecap="round" stroke-linejoin="round"/>
</svg>
